Newaita-dark/actions/16/edit-table-insert-column-right.svg

<?xml version="1.0" encoding="UTF-8"?>
<svg xmlns="http://www.w3.org/2000/svg" xmlns:xlink="http://www.w3.org/1999/xlink" width="16pt" height="16pt" viewBox="0 0 16 16" version="1.1">
<g id="surface1">
<path style=" stroke:none;fill-rule:nonzero;fill:rgb(74.117649%,74.117649%,74.117649%);fill-opacity:1;" d="M 1.652344 0.785156 C 1.289062 0.785156 0.992188 1.082031 0.992188 1.449219 L 0.992188 14.347656 C 0.992188 14.714844 1.289062 15.007812 1.652344 15.007812 L 14.222656 15.007812 L 9.59375 15.007812 L 9.59375 14.015625 L 6.285156 14.015625 L 6.285156 10.710938 L 9.59375 10.710938 L 9.59375 9.71875 L 6.285156 9.71875 L 6.285156 6.410156 L 9.59375 6.410156 L 9.59375 5.417969 L 6.285156 5.417969 L 6.285156 1.777344 L 14.882812 1.777344 L 14.882812 1.449219 C 14.882812 1.082031 14.589844 0.785156 14.222656 0.785156 Z M 2.316406 1.777344 L 5.292969 1.777344 L 5.292969 5.417969 L 1.984375 5.417969 L 1.984375 2.109375 C 1.984375 1.925781 2.132812 1.777344 2.316406 1.777344 Z M 1.984375 6.410156 L 5.292969 6.410156 L 5.292969 9.71875 L 1.984375 9.71875 Z M 1.984375 10.710938 L 5.292969 10.710938 L 5.292969 14.015625 L 2.316406 14.015625 C 2.132812 14.015625 1.984375 13.871094 1.984375 13.6875 Z M 1.984375 10.710938 "/>
<path style=" stroke:none;fill-rule:nonzero;fill:rgb(100%,43.921569%,26.274511%);fill-opacity:1;" d="M 14.882812 1.777344 L 14.882812 8.0625 L 13.890625 8.0625 L 13.890625 6.488281 L 10.585938 3.183594 L 10.585938 5.378906 L 13.269531 8.0625 L 11.867188 8.0625 L 10.585938 6.78125 L 10.585938 8.0625 L 9.59375 8.0625 L 9.59375 1.777344 L 10.585938 1.777344 L 13.890625 5.085938 L 13.890625 1.777344 Z M 14.882812 1.777344 "/>
<path style=" stroke:none;fill-rule:nonzero;fill:rgb(40.000001%,73.333335%,41.568628%);fill-opacity:1;" d="M 12.238281 9.71875 C 11.964844 9.71875 11.742188 9.9375 11.742188 10.214844 L 11.742188 11.867188 L 10.089844 11.867188 C 9.8125 11.867188 9.59375 12.089844 9.59375 12.363281 C 9.59375 12.636719 9.8125 12.859375 10.089844 12.859375 L 11.742188 12.859375 L 11.742188 14.511719 C 11.742188 14.789062 11.964844 15.007812 12.238281 15.007812 C 12.511719 15.007812 12.734375 14.789062 12.734375 14.511719 L 12.734375 12.859375 L 14.386719 12.859375 C 14.664062 12.859375 14.882812 12.636719 14.882812 12.363281 C 14.882812 12.089844 14.664062 11.867188 14.386719 11.867188 L 12.734375 11.867188 L 12.734375 10.214844 C 12.734375 9.9375 12.511719 9.71875 12.238281 9.71875 Z M 12.238281 9.71875 "/>
</g>
</svg>

<svg xmlns="http://www.w3.org/2000/svg" width="16pt" height="16pt" viewBox="0 0 16 16"><path d="M1.652.785a.663.663 0 0 0-.66.664v12.899c0 .367.297.66.66.66h12.57-4.628v-.992H6.285V10.71h3.309v-.992H6.285V6.41h3.309v-.992H6.285v-3.64h8.598v-.329a.66.66 0 0 0-.66-.664zm.664.992h2.977v3.641H1.984V2.109c0-.183.149-.332.332-.332zM1.984 6.41h3.309V9.72H1.984zm0 4.3h3.309v3.306H2.316a.328.328 0 0 1-.332-.329zm0 0" fill="#bdbdbd"/><path d="M14.883 1.777v6.285h-.992V6.489l-3.305-3.304v2.195l2.684 2.684h-1.403L10.586 6.78v1.282h-.992V1.777h.992l3.305 3.309V1.777zm0 0" fill="#ff7043"/><path d="M12.238 9.719a.494.494 0 0 0-.496.496v1.652H10.09a.494.494 0 0 0-.496.496c0 .274.219.496.496.496h1.652v1.653c0 .277.223.496.496.496a.494.494 0 0 0 .496-.496v-1.653h1.653a.494.494 0 0 0 .496-.496.494.494 0 0 0-.496-.496h-1.653v-1.652a.494.494 0 0 0-.496-.496zm0 0" fill="#66bb6a"/></svg>
